src/static/logos/linkedin.svg

<?xml version="1.0" encoding="UTF-8" standalone="no"?>
<svg width="512px" height="130px" viewBox="0 0 512 130" version="1.1" xmlns="http://www.w3.org/2000/svg" xmlns:xlink="http://www.w3.org/1999/xlink" preserveAspectRatio="xMidYMid">
	<g>
		<path d="M0,19.1635571 L19.9868963,19.1635571 L19.9868963,91.9683374 L56.9975677,91.9683374 L56.9975677,110.411135 L0,110.411135 L0,19.1635571" fill="#1A1918"></path>
		<path d="M75.4304675,17.8111213 C81.5825659,17.8111213 86.5756907,22.804246 86.5756907,28.9509455 C86.5756907,35.1075431 81.5825659,40.0889701 75.4304675,40.0889701 C69.2846678,40.0889701 64.2915431,35.1075431 64.2915431,28.9509455 C64.2915431,22.804246 69.2846678,17.8111213 75.4304675,17.8111213 L75.4304675,17.8111213 Z M65.8239438,48.5509174 L85.0369912,48.5509174 L85.0369912,110.38774 L65.8239438,110.38774 L65.8239438,48.5509174 Z" fill="#1A1918"></path>
		<path d="M95.662116,48.558116 L114.104014,48.558116 L114.104014,57.0101652 L114.360464,57.0101652 C116.919564,52.1448155 123.196738,47.0248155 132.545912,47.0248155 C152.01451,47.0248155 155.600309,59.8284148 155.600309,76.4742636 L155.600309,110.38774 L136.388162,110.38774 L136.388162,80.3219121 C136.388162,73.1458137 136.255888,63.9271142 126.393814,63.9271142 C116.406664,63.9271142 114.873364,71.7429877 114.873364,79.8072127 L114.873364,110.38774 L95.662116,110.38774 L95.662116,48.558116" fill="#1A1918"></path>
		<path d="M165.343606,19.1581582 L184.548555,19.1581582 L184.548555,73.6929069 L206.306306,48.5230228 L229.852907,48.5230228 L204.655128,77.1527311 L229.32561,110.411135 L205.182425,110.411135 L184.799606,79.8441054 L184.548555,79.8441054 L184.548555,110.411135 L165.343606,110.411135 L165.343606,19.1581582" fill="#1A1918"></path>
		<path d="M286.551733,99.6798313 C280.398735,107.495705 270.290109,111.982228 260.295761,111.982228 C241.089012,111.982228 225.719114,99.1678313 225.719114,79.3177083 C225.719114,59.4675852 241.089012,46.6639859 260.295761,46.6639859 C278.236457,46.6639859 289.499557,59.4675852 289.499557,79.3177083 L289.499557,85.3375325 L244.931262,85.3375325 C246.457364,92.6387065 251.971487,97.3780808 259.401336,97.3780808 C265.679409,97.3780808 269.902285,94.1747065 273.105659,89.8186573 L286.551733,99.6798313 L286.551733,99.6798313 Z M270.290109,72.2783831 C270.416084,65.8734341 265.42206,60.4951845 258.499712,60.4951845 C250.050362,60.4951845 245.437863,66.2585589 244.931262,72.2783831 L270.290109,72.2783831 L270.290109,72.2783831 Z" fill="#1A1918"></path>
		<path d="M362.567086,110.376942 L344.887339,110.376942 L344.887339,102.177743 L344.638088,102.177743 C341.683065,106.658868 334.262214,111.912942 325.550116,111.912942 C307.101919,111.912942 294.937195,98.5982425 294.937195,79.7685202 C294.937195,62.4756977 305.694594,46.5955993 323.367142,46.5955993 C331.31439,46.5955993 338.74154,48.7722742 343.097589,54.7902988 L343.34954,54.7902988 L343.34954,19.1581582 L362.567086,19.1581582 L362.567086,110.376942 L362.567086,110.376942 Z M329.510243,63.5023972 C319.911817,63.5023972 314.150243,69.9118453 314.150243,79.2529209 C314.150243,88.611993 319.911817,95.0070439 329.510243,95.0070439 C339.124865,95.0070439 344.887339,88.611993 344.887339,79.2529209 C344.887339,69.9118453 339.124865,63.5023972 329.510243,63.5023972 L329.510243,63.5023972 Z" fill="#1A1918"></path>
		<path d="M501.763599,0 L391.342566,0 C386.065996,0 381.779234,4.18238313 381.779234,9.33927592 L381.779234,120.224619 C381.779234,125.386011 386.065996,129.574692 391.342566,129.574692 L501.763599,129.574692 C507.049167,129.574692 511.355726,125.386011 511.355726,120.224619 L511.355726,9.33927592 C511.355726,4.18238313 507.049167,0 501.763599,0" fill="#006087"></path>
		<path d="M410.603304,17.8390158 C416.749104,17.8390158 421.741329,22.8321406 421.741329,28.9788401 C421.741329,35.1300387 416.749104,40.1249631 410.603304,40.1249631 C404.444907,40.1249631 399.458981,35.1300387 399.458981,28.9788401 C399.458981,22.8321406 404.444907,17.8390158 410.603304,17.8390158 L410.603304,17.8390158 Z M400.990482,48.5779121 L420.208928,48.5779121 L420.208928,110.414735 L400.990482,110.414735 L400.990482,48.5779121 Z" fill="#FFFFFF"></path>
		<path d="M432.262974,48.5779121 L450.699473,48.5779121 L450.699473,57.026362 L450.955023,57.026362 C453.519522,52.1655114 459.789497,47.0392127 469.138671,47.0392127 C488.60007,47.0392127 492.193069,59.8464112 492.193069,76.4958594 L492.193069,110.414735 L472.98812,110.414735 L472.98812,80.3435079 C472.98812,73.1692091 472.855845,63.9460105 463.00097,63.9460105 C452.999424,63.9460105 451.467923,71.7582847 451.467923,79.8243093 L451.467923,110.414735 L432.262974,110.414735 L432.262974,48.5779121" fill="#FFFFFF"></path>
	</g>
</svg>

<svg width="512" height="130" xmlns="http://www.w3.org/2000/svg" preserveAspectRatio="xMidYMid"><path d="M0 19.164h19.987v72.804h37.01v18.443H0V19.164m75.43-1.353c6.153 0 11.146 4.993 11.146 11.14 0 6.157-4.993 11.138-11.146 11.138-6.145 0-11.138-4.981-11.138-11.138 0-6.147 4.993-11.14 11.138-11.14zm-9.606 30.74h19.213v61.837H65.824V48.55zm29.838.007h18.442v8.452h.256c2.56-4.865 8.837-9.985 18.186-9.985 19.469 0 23.054 12.803 23.054 29.45v33.913h-19.212V80.322c0-7.176-.132-16.395-9.994-16.395-9.987 0-11.52 7.816-11.52 15.88v30.58H95.661V48.559m69.683-29.401h19.205v54.535l21.757-25.17h23.547l-25.198 28.63 24.67 33.258h-24.143L184.8 79.844h-.251v30.567h-19.205V19.158" fill="#1A1918"/><path d="M286.552 99.68c-6.153 7.816-16.262 12.302-26.256 12.302-19.207 0-34.577-12.814-34.577-32.664s15.37-32.654 34.577-32.654c17.94 0 29.204 12.804 29.204 32.654v6.02h-44.57c1.526 7.3 7.04 12.04 14.47 12.04 6.278 0 10.501-3.203 13.705-7.56l13.446 9.862zM270.29 72.278c.126-6.405-4.868-11.783-11.79-11.783-8.45 0-13.062 5.764-13.569 11.783h25.36zm92.277 38.099h-17.68v-8.2h-.249c-2.955 4.482-10.376 9.736-19.088 9.736-18.448 0-30.613-13.315-30.613-32.144 0-17.293 10.758-33.173 28.43-33.173 7.947 0 15.375 2.176 19.73 8.194h.253V19.158h19.217v91.219zM329.51 63.502c-9.598 0-15.36 6.41-15.36 15.75 0 9.36 5.762 15.755 15.36 15.755 9.615 0 15.377-6.395 15.377-15.754 0-9.341-5.762-15.75-15.377-15.75z" fill="#1A1918"/><path d="M501.764 0H391.343c-5.277 0-9.564 4.182-9.564 9.34v110.885c0 5.161 4.287 9.35 9.564 9.35h110.42c5.286 0 9.593-4.189 9.593-9.35V9.339c0-5.157-4.307-9.339-9.592-9.339" fill="#006087"/><path d="M410.603 17.839c6.146 0 11.138 4.993 11.138 11.14 0 6.151-4.992 11.146-11.138 11.146-6.158 0-11.144-4.995-11.144-11.146 0-6.147 4.986-11.14 11.144-11.14zm-9.613 30.739h19.219v61.837H400.99V48.578zm31.273 0h18.436v8.448h.256c2.565-4.86 8.834-9.987 18.184-9.987 19.461 0 23.054 12.807 23.054 29.457v33.919h-19.205V80.344c0-7.175-.132-16.398-9.987-16.398-10.002 0-11.533 7.812-11.533 15.878v30.59h-19.205V48.579" fill="#FFF"/></svg>
